bernoullicharts/bernstein_0_2_0_6_0_3_mean.svg

<?xml version="1.0" encoding="utf-8" standalone="no"?>
<!DOCTYPE svg PUBLIC "-//W3C//DTD SVG 1.1//EN"
  "http://www.w3.org/Graphics/SVG/1.1/DTD/svg11.dtd">
<!-- Created with matplotlib (https://matplotlib.org/) -->
<svg height="345.6pt" version="1.1" viewBox="0 0 460.8 345.6" width="460.8pt" xmlns="http://www.w3.org/2000/svg" xmlns:xlink="http://www.w3.org/1999/xlink">
 <defs>
  <style type="text/css">
*{stroke-linecap:butt;stroke-linejoin:round;}
  </style>
 </defs>
 <g id="figure_1">
  <g id="patch_1">
   <path d="M 0 345.6 
L 460.8 345.6 
L 460.8 0 
L 0 0 
z
" style="fill:#ffffff;"/>
  </g>
  <g id="axes_1">
   <g id="patch_2">
    <path d="M 57.6 307.584 
L 414.72 307.584 
L 414.72 41.472 
L 57.6 41.472 
z
" style="fill:#ffffff;"/>
   </g>
   <g id="matplotlib.axis_1">
    <g id="xtick_1">
     <g id="line2d_1">
      <defs>
       <path d="M 0 0 
L 0 3.5 
" id="m707b7f2c37" style="stroke:#000000;stroke-width:0.8;"/>
      </defs>
      <g>
       <use style="stroke:#000000;stroke-width:0.8;" x="73.800255" xlink:href="#m707b7f2c37" y="307.584"/>
      </g>
     </g>
     <g id="text_1">
      <text style="font-family:DejaVu Sans;font-size:10px;font-style:normal;font-weight:normal;text-anchor:middle;" transform="rotate(-0, 73.800255, 322.182437)" x="73.800255" y="322.182437">0.0</text>
     </g>
    </g>
    <g id="xtick_2">
     <g id="line2d_2">
      <g>
       <use style="stroke:#000000;stroke-width:0.8;" x="138.744153" xlink:href="#m707b7f2c37" y="307.584"/>
      </g>
     </g>
     <g id="text_2">
      <text style="font-family:DejaVu Sans;font-size:10px;font-style:normal;font-weight:normal;text-anchor:middle;" transform="rotate(-0, 138.744153, 322.182437)" x="138.744153" y="322.182437">0.2</text>
     </g>
    </g>
    <g id="xtick_3">
     <g id="line2d_3">
      <g>
       <use style="stroke:#000000;stroke-width:0.8;" x="203.688051" xlink:href="#m707b7f2c37" y="307.584"/>
      </g>
     </g>
     <g id="text_3">
      <text style="font-family:DejaVu Sans;font-size:10px;font-style:normal;font-weight:normal;text-anchor:middle;" transform="rotate(-0, 203.688051, 322.182437)" x="203.688051" y="322.182437">0.4</text>
     </g>
    </g>
    <g id="xtick_4">
     <g id="line2d_4">
      <g>
       <use style="stroke:#000000;stroke-width:0.8;" x="268.631949" xlink:href="#m707b7f2c37" y="307.584"/>
      </g>
     </g>
     <g id="text_4">
      <text style="font-family:DejaVu Sans;font-size:10px;font-style:normal;font-weight:normal;text-anchor:middle;" transform="rotate(-0, 268.631949, 322.182437)" x="268.631949" y="322.182437">0.6</text>
     </g>
    </g>
    <g id="xtick_5">
     <g id="line2d_5">
      <g>
       <use style="stroke:#000000;stroke-width:0.8;" x="333.575847" xlink:href="#m707b7f2c37" y="307.584"/>
      </g>
     </g>
     <g id="text_5">
      <text style="font-family:DejaVu Sans;font-size:10px;font-style:normal;font-weight:normal;text-anchor:middle;" transform="rotate(-0, 333.575847, 322.182437)" x="333.575847" y="322.182437">0.8</text>
     </g>
    </g>
    <g id="xtick_6">
     <g id="line2d_6">
      <g>
       <use style="stroke:#000000;stroke-width:0.8;" x="398.519745" xlink:href="#m707b7f2c37" y="307.584"/>
      </g>
     </g>
     <g id="text_6">
      <text style="font-family:DejaVu Sans;font-size:10px;font-style:normal;font-weight:normal;text-anchor:middle;" transform="rotate(-0, 398.519745, 322.182437)" x="398.519745" y="322.182437">1.0</text>
     </g>
    </g>
    <g id="text_7">
     <text style="font-family:DejaVu Sans;font-size:10px;font-style:normal;font-weight:normal;text-anchor:middle;" transform="rotate(-0, 236.16, 335.860562)" x="236.16" y="335.860562">Input Coin's Heads Probability (λ)</text>
    </g>
   </g>
   <g id="matplotlib.axis_2">
    <g id="ytick_1">
     <g id="line2d_7">
      <defs>
       <path d="M 0 0 
L -3.5 0 
" id="mdf7bdf938c" style="stroke:#000000;stroke-width:0.8;"/>
      </defs>
      <g>
       <use style="stroke:#000000;stroke-width:0.8;" x="57.6" xlink:href="#mdf7bdf938c" y="286.722783"/>
      </g>
     </g>
     <g id="text_8">
      <text style="font-family:DejaVu Sans;font-size:10px;font-style:normal;font-weight:normal;text-anchor:end;" transform="rotate(-0, 50.6, 290.522001)" x="50.6" y="290.522001">0.20</text>
     </g>
    </g>
    <g id="ytick_2">
     <g id="line2d_8">
      <g>
       <use style="stroke:#000000;stroke-width:0.8;" x="57.6" xlink:href="#mdf7bdf938c" y="242.896696"/>
      </g>
     </g>
     <g id="text_9">
      <text style="font-family:DejaVu Sans;font-size:10px;font-style:normal;font-weight:normal;text-anchor:end;" transform="rotate(-0, 50.6, 246.695914)" x="50.6" y="246.695914">0.25</text>
     </g>
    </g>
    <g id="ytick_3">
     <g id="line2d_9">
      <g>
       <use style="stroke:#000000;stroke-width:0.8;" x="57.6" xlink:href="#mdf7bdf938c" y="199.070609"/>
      </g>
     </g>
     <g id="text_10">
      <text style="font-family:DejaVu Sans;font-size:10px;font-style:normal;font-weight:normal;text-anchor:end;" transform="rotate(-0, 50.6, 202.869827)" x="50.6" y="202.869827">0.30</text>
     </g>
    </g>
    <g id="ytick_4">
     <g id="line2d_10">
      <g>
       <use style="stroke:#000000;stroke-width:0.8;" x="57.6" xlink:href="#mdf7bdf938c" y="155.244522"/>
      </g>
     </g>
     <g id="text_11">
      <text style="font-family:DejaVu Sans;font-size:10px;font-style:normal;font-weight:normal;text-anchor:end;" transform="rotate(-0, 50.6, 159.04374)" x="50.6" y="159.04374">0.35</text>
     </g>
    </g>
    <g id="ytick_5">
     <g id="line2d_11">
      <g>
       <use style="stroke:#000000;stroke-width:0.8;" x="57.6" xlink:href="#mdf7bdf938c" y="111.418435"/>
      </g>
     </g>
     <g id="text_12">
      <text style="font-family:DejaVu Sans;font-size:10px;font-style:normal;font-weight:normal;text-anchor:end;" transform="rotate(-0, 50.6, 115.217654)" x="50.6" y="115.217654">0.40</text>
     </g>
    </g>
    <g id="ytick_6">
     <g id="line2d_12">
      <g>
       <use style="stroke:#000000;stroke-width:0.8;" x="57.6" xlink:href="#mdf7bdf938c" y="67.592348"/>
      </g>
     </g>
     <g id="text_13">
      <text style="font-family:DejaVu Sans;font-size:10px;font-style:normal;font-weight:normal;text-anchor:end;" transform="rotate(-0, 50.6, 71.391567)" x="50.6" y="71.391567">0.45</text>
     </g>
    </g>
    <g id="text_14">
     <text style="font-family:DejaVu Sans;font-size:10px;font-style:normal;font-weight:normal;text-anchor:middle;" transform="rotate(-90, 22.254687, 174.528)" x="22.254687" y="174.528">Simulated Mean / Function Value</text>
    </g>
   </g>
   <g id="line2d_13">
    <path clip-path="url(#p4983404d6e)" d="M 73.832727 286.652667 
L 77.112066 279.634896 
L 80.391405 272.74228 
L 83.670744 265.974818 
L 86.950083 259.332511 
L 90.229421 252.815358 
L 93.50876 246.42336 
L 96.788099 240.156517 
L 100.067438 234.014828 
L 103.346777 227.998293 
L 106.626116 222.106913 
L 109.905455 216.340688 
L 113.184793 210.699617 
L 116.464132 205.183701 
L 119.743471 199.792939 
L 123.02281 194.527331 
L 126.302149 189.386879 
L 129.581488 184.371581 
L 132.860826 179.481437 
L 136.140165 174.716448 
L 139.419504 170.076613 
L 142.698843 165.561933 
L 145.978182 161.172408 
L 149.257521 156.908037 
L 152.53686 152.76882 
L 155.816198 148.754758 
L 159.095537 144.865851 
L 162.374876 141.102098 
L 165.654215 137.4635 
L 168.933554 133.950056 
L 172.212893 130.561767 
L 175.492231 127.298632 
L 178.77157 124.160652 
L 182.050909 121.147827 
L 185.330248 118.260156 
L 188.609587 115.497639 
L 191.888926 112.860277 
L 195.168264 110.34807 
L 198.447603 107.961017 
L 201.726942 105.699119 
L 205.006281 103.562375 
L 208.28562 101.550786 
L 211.564959 99.664351 
L 214.844298 97.903071 
L 218.123636 96.266945 
L 221.402975 94.755974 
L 224.682314 93.370157 
L 227.961653 92.109495 
L 231.240992 90.973988 
L 234.520331 89.963635 
L 237.799669 89.078436 
L 241.079008 88.318393 
L 244.358347 87.683503 
L 247.637686 87.173768 
L 250.917025 86.789188 
L 254.196364 86.529762 
L 257.475702 86.395491 
L 260.755041 86.386375 
L 264.03438 86.502412 
L 267.313719 86.743605 
L 270.593058 87.109952 
L 273.872397 87.601453 
L 277.151736 88.218109 
L 280.431074 88.95992 
L 283.710413 89.826885 
L 286.989752 90.819005 
L 290.269091 91.936279 
L 293.54843 93.178708 
L 296.827769 94.546291 
L 300.107107 96.039029 
L 303.386446 97.656921 
L 306.665785 99.399968 
L 309.945124 101.268169 
L 313.224463 103.261525 
L 316.503802 105.380036 
L 319.78314 107.623701 
L 323.062479 109.992521 
L 326.341818 112.486495 
L 329.621157 115.105623 
L 332.900496 117.849907 
L 336.179835 120.719344 
L 339.459174 123.713937 
L 342.738512 126.833683 
L 346.017851 130.078585 
L 349.29719 133.448641 
L 352.576529 136.943851 
L 355.855868 140.564216 
L 359.135207 144.309735 
L 362.414545 148.18041 
L 365.693884 152.176238 
L 368.973223 156.297221 
L 372.252562 160.543359 
L 375.531901 164.914651 
L 378.81124 169.411098 
L 382.090579 174.032699 
L 385.369917 178.779455 
L 388.649256 183.651365 
L 391.928595 188.64843 
L 395.207934 193.77065 
L 398.487273 199.018024 
" style="fill:none;stroke:#1f77b4;stroke-linecap:square;stroke-width:1.5;"/>
   </g>
   <g id="line2d_14">
    <path clip-path="url(#p4983404d6e)" d="M 73.832727 260.42713 
L 77.112066 295.488 
L 80.391405 256.921043 
L 83.670744 295.488 
L 86.950083 251.661913 
L 90.229421 223.613217 
L 93.50876 265.686261 
L 96.788099 242.896696 
L 100.067438 286.722783 
L 103.346777 253.414957 
L 106.626116 230.625391 
L 109.905455 213.094957 
L 113.184793 200.823652 
L 116.464132 202.576696 
L 119.743471 195.564522 
L 123.02281 200.823652 
L 126.302149 169.26887 
L 129.581488 174.528 
L 132.860826 216.601043 
L 136.140165 164.009739 
L 139.419504 169.26887 
L 142.698843 174.528 
L 145.978182 172.774957 
L 149.257521 160.503652 
L 152.53686 104.406261 
L 155.816198 176.281043 
L 159.095537 141.220174 
L 162.374876 134.208 
L 165.654215 127.195826 
L 168.933554 146.479304 
L 172.212893 113.171478 
L 175.492231 135.961043 
L 178.77157 97.394087 
L 182.050909 99.14713 
L 185.330248 139.46713 
L 188.609587 111.418435 
L 191.888926 114.924522 
L 195.168264 107.912348 
L 198.447603 120.183652 
L 201.726942 114.924522 
L 205.006281 123.689739 
L 208.28562 92.134957 
L 211.564959 93.888 
L 214.844298 106.159304 
L 218.123636 69.345391 
L 221.402975 114.924522 
L 224.682314 106.159304 
L 227.961653 118.430609 
L 231.240992 72.851478 
L 234.520331 78.110609 
L 237.799669 62.333217 
L 241.079008 99.14713 
L 244.358347 69.345391 
L 247.637686 62.333217 
L 250.917025 86.875826 
L 254.196364 79.863652 
L 257.475702 78.110609 
L 260.755041 79.863652 
L 264.03438 90.381913 
L 267.313719 92.134957 
L 270.593058 83.369739 
L 273.872397 97.394087 
L 277.151736 53.568 
L 280.431074 67.592348 
L 283.710413 93.888 
L 286.989752 74.604522 
L 290.269091 118.430609 
L 293.54843 104.406261 
L 296.827769 64.086261 
L 300.107107 120.183652 
L 303.386446 111.418435 
L 306.665785 114.924522 
L 309.945124 90.381913 
L 313.224463 64.086261 
L 316.503802 90.381913 
L 319.78314 114.924522 
L 323.062479 72.851478 
L 326.341818 111.418435 
L 329.621157 99.14713 
L 332.900496 100.900174 
L 336.179835 93.888 
L 339.459174 85.122783 
L 342.738512 164.009739 
L 346.017851 114.924522 
L 349.29719 142.973217 
L 352.576529 144.726261 
L 355.855868 128.94887 
L 359.135207 142.973217 
L 362.414545 121.936696 
L 365.693884 181.540174 
L 368.973223 151.738435 
L 372.252562 158.750609 
L 375.531901 188.552348 
L 378.81124 179.78713 
L 382.090579 174.528 
L 385.369917 213.094957 
L 388.649256 176.281043 
L 391.928595 156.997565 
L 395.207934 206.082783 
L 398.487273 185.046261 
" style="fill:none;stroke:#ff7f0e;stroke-linecap:square;stroke-width:1.5;"/>
   </g>
   <g id="patch_3">
    <path d="M 57.6 307.584 
L 57.6 41.472 
" style="fill:none;stroke:#000000;stroke-linecap:square;stroke-linejoin:miter;stroke-width:0.8;"/>
   </g>
   <g id="patch_4">
    <path d="M 414.72 307.584 
L 414.72 41.472 
" style="fill:none;stroke:#000000;stroke-linecap:square;stroke-linejoin:miter;stroke-width:0.8;"/>
   </g>
   <g id="patch_5">
    <path d="M 57.6 307.584 
L 414.72 307.584 
" style="fill:none;stroke:#000000;stroke-linecap:square;stroke-linejoin:miter;stroke-width:0.8;"/>
   </g>
   <g id="patch_6">
    <path d="M 57.6 41.472 
L 414.72 41.472 
" style="fill:none;stroke:#000000;stroke-linecap:square;stroke-linejoin:miter;stroke-width:0.8;"/>
   </g>
   <g id="text_15">
    <text style="font-family:DejaVu Sans;font-size:12px;font-style:normal;font-weight:normal;" transform="translate(81.272813 22.034625)">Simulated Mean for Bernstein 0.2,0.6,0.3 Algorithm</text>
    <text style="font-family:DejaVu Sans;font-size:12px;font-style:normal;font-weight:normal;" transform="translate(132.609375 35.472)">(Wasserstein Distances in Legend)</text>
   </g>
   <g id="legend_1">
    <g id="patch_7">
     <path d="M 229.47 302.584 
L 407.72 302.584 
Q 409.72 302.584 409.72 300.584 
L 409.72 272.22775 
Q 409.72 270.22775 407.72 270.22775 
L 229.47 270.22775 
Q 227.47 270.22775 227.47 272.22775 
L 227.47 300.584 
Q 227.47 302.584 229.47 302.584 
z
" style="fill:#ffffff;opacity:0.8;stroke:#cccccc;stroke-linejoin:miter;"/>
    </g>
    <g id="line2d_15">
     <path d="M 231.47 278.326187 
L 251.47 278.326187 
" style="fill:none;stroke:#1f77b4;stroke-linecap:square;stroke-width:1.5;"/>
    </g>
    <g id="line2d_16"/>
    <g id="text_16">
     <text style="font-family:DejaVu Sans;font-size:10px;font-style:normal;font-weight:normal;text-anchor:start;" transform="rotate(-0, 259.47, 281.826187)" x="259.47" y="281.826187">Bernstein 0.2,0.6,0.3</text>
    </g>
    <g id="line2d_17">
     <path d="M 231.47 293.004312 
L 251.47 293.004312 
" style="fill:none;stroke:#ff7f0e;stroke-linecap:square;stroke-width:1.5;"/>
    </g>
    <g id="line2d_18"/>
    <g id="text_17">
     <text style="font-family:DejaVu Sans;font-size:10px;font-style:normal;font-weight:normal;text-anchor:start;" transform="rotate(-0, 259.47, 296.504312)" x="259.47" y="296.504312">Simul. Mean (WD=0.006316)</text>
    </g>
   </g>
  </g>
 </g>
 <defs>
  <clipPath id="p4983404d6e">
   <rect height="266.112" width="357.12" x="57.6" y="41.472"/>
  </clipPath>
 </defs>
</svg>

<svg height="460.8" viewBox="0 0 460.8 345.6" width="614.4" xmlns="http://www.w3.org/2000/svg" xmlns:xlink="http://www.w3.org/1999/xlink"><defs><style>*{stroke-linecap:butt;stroke-linejoin:round}</style></defs><g id="figure_1"><path d="M0 345.6h460.8V0H0z" fill="#fff" id="patch_1"/><g id="axes_1"><path d="M57.6 307.584h357.12V41.472H57.6z" fill="#fff" id="patch_2"/><g id="matplotlib.axis_1"><g id="xtick_1"><g id="line2d_1"><defs><path d="M0 0v3.5" id="m707b7f2c37" stroke="#000" stroke-width=".8"/></defs><use x="73.8" xlink:href="#m707b7f2c37" y="307.584" stroke="#000" stroke-width=".8"/></g><text x="73.8" y="322.182" font-family="DejaVu Sans" font-size="10" font-weight="400" text-anchor="middle" id="text_1">0.0</text></g><g id="xtick_2"><use x="138.744" xlink:href="#m707b7f2c37" y="307.584" stroke="#000" stroke-width=".8" id="line2d_2"/><text x="138.744" y="322.182" font-family="DejaVu Sans" font-size="10" font-weight="400" text-anchor="middle" id="text_2">0.2</text></g><g id="xtick_3"><use x="203.688" xlink:href="#m707b7f2c37" y="307.584" stroke="#000" stroke-width=".8" id="line2d_3"/><text x="203.688" y="322.182" font-family="DejaVu Sans" font-size="10" font-weight="400" text-anchor="middle" id="text_3">0.4</text></g><g id="xtick_4"><use x="268.632" xlink:href="#m707b7f2c37" y="307.584" stroke="#000" stroke-width=".8" id="line2d_4"/><text x="268.632" y="322.182" font-family="DejaVu Sans" font-size="10" font-weight="400" text-anchor="middle" id="text_4">0.6</text></g><g id="xtick_5"><use x="333.576" xlink:href="#m707b7f2c37" y="307.584" stroke="#000" stroke-width=".8" id="line2d_5"/><text x="333.576" y="322.182" font-family="DejaVu Sans" font-size="10" font-weight="400" text-anchor="middle" id="text_5">0.8</text></g><g id="xtick_6"><use x="398.52" xlink:href="#m707b7f2c37" y="307.584" stroke="#000" stroke-width=".8" id="line2d_6"/><text x="398.52" y="322.182" font-family="DejaVu Sans" font-size="10" font-weight="400" text-anchor="middle" id="text_6">1.0</text></g><text x="236.16" y="335.861" font-family="DejaVu Sans" font-size="10" font-weight="400" text-anchor="middle" id="text_7">Input Coin&apos;s Heads Probability (λ)</text></g><g id="matplotlib.axis_2"><g id="ytick_1"><g id="line2d_7"><defs><path d="M0 0h-3.5" id="mdf7bdf938c" stroke="#000" stroke-width=".8"/></defs><use x="57.6" xlink:href="#mdf7bdf938c" y="286.723" stroke="#000" stroke-width=".8"/></g><text x="50.6" y="290.522" font-family="DejaVu Sans" font-size="10" font-weight="400" text-anchor="end" id="text_8">0.20</text></g><g id="ytick_2"><use x="57.6" xlink:href="#mdf7bdf938c" y="242.897" stroke="#000" stroke-width=".8" id="line2d_8"/><text x="50.6" y="246.696" font-family="DejaVu Sans" font-size="10" font-weight="400" text-anchor="end" id="text_9">0.25</text></g><g id="ytick_3"><use x="57.6" xlink:href="#mdf7bdf938c" y="199.071" stroke="#000" stroke-width=".8" id="line2d_9"/><text x="50.6" y="202.87" font-family="DejaVu Sans" font-size="10" font-weight="400" text-anchor="end" id="text_10">0.30</text></g><g id="ytick_4"><use x="57.6" xlink:href="#mdf7bdf938c" y="155.245" stroke="#000" stroke-width=".8" id="line2d_10"/><text x="50.6" y="159.044" font-family="DejaVu Sans" font-size="10" font-weight="400" text-anchor="end" id="text_11">0.35</text></g><g id="ytick_5"><use x="57.6" xlink:href="#mdf7bdf938c" y="111.418" stroke="#000" stroke-width=".8" id="line2d_11"/><text x="50.6" y="115.218" font-family="DejaVu Sans" font-size="10" font-weight="400" text-anchor="end" id="text_12">0.40</text></g><g id="ytick_6"><use x="57.6" xlink:href="#mdf7bdf938c" y="67.592" stroke="#000" stroke-width=".8" id="line2d_12"/><text x="50.6" y="71.392" font-family="DejaVu Sans" font-size="10" font-weight="400" text-anchor="end" id="text_13">0.45</text></g><text transform="rotate(-90 22.255 174.528)" x="22.255" y="174.528" font-family="DejaVu Sans" font-size="10" font-weight="400" text-anchor="middle" id="text_14">Simulated Mean / Function Value</text></g><path clip-path="url(#p4983404d6e)" d="M73.833 286.653l3.28-7.018 3.278-6.893 3.28-6.767 3.28-6.642 3.278-6.518 3.28-6.392 3.28-6.266 3.278-6.142 3.28-6.017 3.28-5.891 3.278-5.766 3.28-5.641 3.28-5.516 3.278-5.391 3.28-5.266 3.28-5.14 3.278-5.015 3.28-4.89 3.28-4.766 3.279-4.64 3.279-4.514 3.28-4.39 3.279-4.264 3.279-4.14 3.28-4.013 3.279-3.89 3.279-3.763 3.28-3.638 3.279-3.514 3.279-3.388 3.28-3.263 3.279-3.138 3.279-3.013 3.28-2.888 3.279-2.762 3.279-2.638 3.28-2.512 3.279-2.387 3.279-2.262 3.28-2.137 3.279-2.011 3.279-1.887 3.28-1.76 3.279-1.637 3.279-1.511 3.28-1.386 3.279-1.26 3.279-1.136 3.28-1.01 3.279-.886 3.279-.76 3.28-.634 3.279-.51 3.279-.385 3.28-.26 3.279-.134 3.279-.009 3.28.116 3.279.242 3.28.366 3.278.491 3.28.617 3.28.742 3.278.867 3.28.992 3.28 1.117 3.278 1.243 3.28 1.367 3.28 1.493 3.278 1.618 3.28 1.743 3.28 1.868 3.278 1.994 3.28 2.118 3.28 2.244 3.278 2.369 3.28 2.493 3.28 2.62 3.278 2.744 3.28 2.87 3.28 2.994 3.279 3.12 3.279 3.245 3.28 3.37 3.279 3.495 3.279 3.62 3.28 3.746 3.279 3.87 3.279 3.996 3.28 4.121 3.279 4.246 3.279 4.372 3.28 4.496 3.279 4.622 3.279 4.746 3.28 4.872 3.279 4.997 3.279 5.123 3.28 5.247" fill="none" stroke="#1f77b4" stroke-linecap="square" stroke-width="1.5" id="line2d_13"/><path clip-path="url(#p4983404d6e)" d="M73.833 260.427l3.28 35.061 3.278-38.567 3.28 38.567 3.28-43.826 3.278-28.049 3.28 42.073 3.28-22.79 3.278 43.827 3.28-33.308 3.28-22.79 3.278-17.53 3.28-12.271 3.28 1.753 3.278-7.012 3.28 5.259 3.28-31.555 3.278 5.259 3.28 42.073 3.28-52.591 3.279 5.259 3.279 5.259 3.28-1.753 3.279-12.271 3.279-56.098 3.28 71.875 3.279-35.06 3.279-7.013 3.28-7.012 3.279 19.283 3.279-33.308 3.28 22.79 3.279-38.567 3.279 1.753 3.28 40.32 3.279-28.049 3.279 3.507 3.28-7.013 3.279 12.272 3.279-5.26 3.28 8.766 3.279-31.555 3.279 1.753 3.28 12.271 3.279-36.814 3.279 45.58 3.28-8.766 3.279 12.272 3.279-45.58 3.28 5.26 3.279-15.778 3.279 36.814 3.28-29.802 3.279-7.012 3.279 24.543 3.28-7.012 3.279-1.753 3.279 1.753 3.28 10.518 3.279 1.753 3.28-8.765 3.278 14.024 3.28-43.826 3.28 14.024 3.278 26.296 3.28-19.283 3.28 43.826 3.278-14.025 3.28-40.32 3.28 56.098 3.278-8.766 3.28 3.507 3.28-24.543 3.278-26.296 3.28 26.296 3.28 24.543 3.278-42.074 3.28 38.567 3.28-12.27 3.278 1.752 3.28-7.012 3.28-8.765 3.279 78.887 3.279-49.085 3.28 28.048 3.279 1.753 3.279-15.777 3.28 14.024 3.279-21.036 3.279 59.603 3.28-29.802 3.279 7.013 3.279 29.801 3.28-8.765 3.279-5.259 3.279 38.567 3.28-36.814 3.279-19.283 3.279 49.085 3.28-21.037" fill="none" stroke="#ff7f0e" stroke-linecap="square" stroke-width="1.5" id="line2d_14"/><path d="M57.6 307.584V41.472" fill="none" stroke="#000" stroke-linecap="square" stroke-width=".8" id="patch_3"/><path d="M414.72 307.584V41.472" fill="none" stroke="#000" stroke-linecap="square" stroke-width=".8" id="patch_4"/><path d="M57.6 307.584h357.12" fill="none" stroke="#000" stroke-linecap="square" stroke-width=".8" id="patch_5"/><path d="M57.6 41.472h357.12" fill="none" stroke="#000" stroke-linecap="square" stroke-width=".8" id="patch_6"/><g id="text_15" font-family="DejaVu Sans" font-size="12" font-weight="400"><text transform="translate(81.273 22.035)">Simulated Mean for Bernstein 0.2,0.6,0.3 Algorithm</text><text transform="translate(132.61 35.472)">(Wasserstein Distances in Legend)</text></g><g id="legend_1"><path d="M229.47 302.584h178.25q2 0 2-2v-28.356q0-2-2-2H229.47q-2 0-2 2v28.356q0 2 2 2z" fill="#fff" opacity=".8" stroke="#ccc" id="patch_7"/><path d="M231.47 278.326h20" fill="none" stroke="#1f77b4" stroke-linecap="square" stroke-width="1.5" id="line2d_15"/><text x="259.47" y="281.826" font-family="DejaVu Sans" font-size="10" font-weight="400" id="text_16">Bernstein 0.2,0.6,0.3</text><path d="M231.47 293.004h20" fill="none" stroke="#ff7f0e" stroke-linecap="square" stroke-width="1.5" id="line2d_17"/><text x="259.47" y="296.504" font-family="DejaVu Sans" font-size="10" font-weight="400" id="text_17">Simul. Mean (WD=0.006316)</text></g></g></g><defs><clipPath id="p4983404d6e"><path d="M57.6 41.472h357.12v266.112H57.6z"/></clipPath></defs></svg>
